_icons/SVG/546-cottonee-shiny.svg

<svg xmlns="http://www.w3.org/2000/svg" viewBox="0 0 32 32"><title>546-cottonee-shiny</title><path d="M5.03618,16.82209c0,3.36393,4.90867,6.091,10.96382,6.091v-12.182C9.94485,10.73105,5.03618,13.45809,5.03618,16.82209Z" style="fill:#f7f7f7"/><ellipse cx="11.04275" cy="15.87626" rx="1.104" ry="1.92248" style="fill:#bee758"/><ellipse cx="11.19503" cy="15.37761" rx="0.45683" ry="0.81473" style="fill:#fff"/><path d="M12.41663,19.1348c-6.36089-4.57191-6.89385,3.95553-2.24948,3.95553-.1248,2.31415,2.03583,2.55788,3.74979,1.75115-.13445.75272.36169,1.69409,2.08306,1.69409v-9.384C14.06922,17.15156,13.03308,17.63,12.41663,19.1348Z" style="fill:#fdebbb"/><path d="M14.20249,7.88182c-5.32967-.78044-8.87,4.81571-2.55066,5.006C11.93432,14.1128,15.33246,13.9538,16,13.9538V5.46443C14.56835,5.46443,13.03,6.98026,14.20249,7.88182Z" style="fill:#fff3d9"/><path d="M8.91089,15.66688c.63863.74508,1.5989,4.60633.60911,5.44385a8.1874,8.1874,0,0,1-1.24388-1.40855L8.03531,20.73l-.533-.64717L6.741,21.11073C2.72272,21.1052-.10132,19.76088.00279,15.13392A19.7651,19.7651,0,0,0,8.91089,15.66688Z" style="fill:#f79654"/><path d="M26.96382,16.82209c0,3.36393-4.90867,6.091-10.96382,6.091v-12.182C22.05515,10.73105,26.96382,13.45809,26.96382,16.82209Z" style="fill:#edeeee"/><ellipse cx="20.95725" cy="15.87626" rx="1.104" ry="1.92248" style="fill:#b1e346"/><ellipse cx="20.80497" cy="15.37761" rx="0.45683" ry="0.81473" style="fill:#f7f7f7"/><path d="M19.58337,19.1348c6.36089-4.57191,6.89385,3.95553,2.24948,3.95553.1248,2.31415-2.03583,2.55788-3.74979,1.75115.13445.75272-.36169,1.69409-2.08306,1.69409v-9.384C17.93078,17.15156,18.96692,17.63,19.58337,19.1348Z" style="fill:#fae09f"/><path d="M17.79751,7.88182c5.32967-.78044,8.87005,4.81571,2.55066,5.006C20.06568,14.1128,16.66754,13.9538,16,13.9538V5.46443C17.43165,5.46443,18.97,6.98026,17.79751,7.88182Z" style="fill:#fdebbb"/><path d="M23.08911,15.66688c-.63863.74508-1.5989,4.60633-.60911,5.44385a8.1874,8.1874,0,0,0,1.24388-1.40855L23.96469,20.73l.533-.64717.76138,1.02786c4.01825-.00553,6.84229-1.34985,6.73818-5.97681A19.7651,19.7651,0,0,1,23.08911,15.66688Z" style="fill:#ef8c48"/></svg>

<svg xmlns="http://www.w3.org/2000/svg" viewBox="0 0 32 32"><path d="M5.036 16.822c0 3.364 4.909 6.091 10.964 6.091V10.731c-6.055 0-10.964 2.727-10.964 6.091z" fill="#f7f7f7"/><ellipse cx="11.043" cy="15.876" rx="1.104" ry="1.922" fill="#bee758"/><ellipse cx="11.195" cy="15.378" rx=".457" ry=".815" fill="#fff"/><path d="M12.417 19.135c-6.361-4.572-6.894 3.955-2.25 3.955-.125 2.314 2.036 2.558 3.75 1.751-.135.753.362 1.695 2.083 1.695v-9.384c-1.93 0-2.967.478-3.583 1.983z" fill="#fdebbb"/><path d="M14.202 7.882c-5.33-.78-8.87 4.816-2.55 5.006.282 1.225 3.68 1.066 4.348 1.066v-8.49c-1.432 0-2.97 1.516-1.798 2.418z" fill="#fff3d9"/><path d="M8.91 15.667c.64.745 1.6 4.606.61 5.444a8.187 8.187 0 01-1.244-1.409l-.24 1.028-.534-.647-.761 1.028c-4.018-.006-6.842-1.35-6.738-5.977a19.765 19.765 0 008.908.533z" fill="#f79654"/><path d="M26.964 16.822c0 3.364-4.909 6.091-10.964 6.091V10.731c6.055 0 10.964 2.727 10.964 6.091z" fill="#edeeee"/><ellipse cx="20.957" cy="15.876" rx="1.104" ry="1.922" fill="#b1e346"/><ellipse cx="20.805" cy="15.378" rx=".457" ry=".815" fill="#f7f7f7"/><path d="M19.583 19.135c6.361-4.572 6.894 3.955 2.25 3.955.125 2.314-2.036 2.558-3.75 1.751.135.753-.362 1.695-2.083 1.695v-9.384c1.93 0 2.967.478 3.583 1.983z" fill="#fae09f"/><path d="M17.798 7.882c5.33-.78 8.87 4.816 2.55 5.006-.282 1.225-3.68 1.066-4.348 1.066v-8.49c1.432 0 2.97 1.516 1.798 2.418z" fill="#fdebbb"/><path d="M23.09 15.667c-.64.745-1.6 4.606-.61 5.444a8.187 8.187 0 001.244-1.409l.24 1.028.534-.647.761 1.028c4.018-.006 6.842-1.35 6.738-5.977a19.765 19.765 0 01-8.908.533z" fill="#ef8c48"/></svg>
